flaticon/social-media/yelp.svg

<svg xmlns="http://www.w3.org/2000/svg" width="32" height="32" viewBox="0 0 24 24">
    <path d="M9.554688 15.441406C10.113281 15.28125 10.472656 14.800781 10.515625 14.160156 10.554688 13.523438 10.234375 12.960938 9.675781 12.761719L8.59375 12.320312C4.675781 10.683594 4.675781 10.683594 4.394531 10.683594 3.957031 10.683594 3.554688 10.882812 3.316406 11.28125 2.796875 12.042969 2.714844 14.121094 2.835938 15.28125 2.914062 15.800781 2.996094 16.160156 3.117188 16.402344 3.355469 16.800781 3.714844 17.082031 4.15625 17.082031 4.195312 17.082031 4.195312 17.082031 4.234375 17.082031 4.476562 17.082031 4.796875 16.960938 8.035156 15.921875 9.15625 15.5625 9.476562 15.480469 9.554688 15.441406zM4.195312 16.28125C3.996094 16.28125 3.875 16.121094 3.835938 16.042969 3.796875 15.921875 3.675781 15.722656 3.636719 15.203125 3.515625 13.960938 3.714844 12.203125 3.996094 11.722656 4.117188 11.5625 4.234375 11.480469 4.433594 11.480469 4.554688 11.480469 5.277344 11.761719 8.355469 13.042969L9.433594 13.480469C9.675781 13.601562 9.792969 13.839844 9.792969 14.121094 9.753906 14.402344 9.632812 14.601562 9.394531 14.679688 9.316406 14.679688 7.835938 15.160156 7.835938 15.160156 4.914062 16.121094 4.316406 16.28125 4.195312 16.28125zM11.472656 16.242188C10.875 16 10.234375 16.160156 9.875 16.601562 9.875 16.601562 9.195312 17.402344 9.113281 17.480469 6.355469 20.71875 6.355469 20.761719 6.273438 21 6.195312 21.160156 6.195312 21.359375 6.195312 21.519531 6.234375 21.761719 6.355469 22 6.515625 22.199219 7.15625 22.960938 9.835938 24 11.074219 24 11.15625 24 11.234375 24 11.355469 24 11.835938 23.921875 12.15625 23.640625 12.3125 23.238281 12.394531 23 12.394531 22.960938 12.394531 19.160156 12.394531 19.160156 12.394531 17.640625 12.394531 17.5625 12.394531 16.960938 12.074219 16.480469 11.472656 16.242188zM11.59375 19.160156C11.59375 22.320312 11.59375 22.839844 11.554688 22.960938 11.472656 23.082031 11.355469 23.160156 11.195312 23.199219 10.394531 23.320312 7.636719 22.320312 7.113281 21.71875 7.035156 21.601562 6.996094 21.519531 6.996094 21.441406 6.996094 21.402344 6.996094 21.320312 7.035156 21.28125 7.074219 21.160156 7.59375 20.519531 9.714844 18 9.875 17.882812 10.074219 17.601562 10.515625 17.121094 10.632812 16.960938 10.914062 16.882812 11.195312 17 11.472656 17.082031 11.59375 17.28125 11.59375 17.480469 11.59375 17.519531 11.59375 17.519531 11.59375 19.160156zM20.753906 16.921875C20.554688 16.761719 20.554688 16.761719 16.914062 15.5625 16.355469 15.363281 15.472656 15.082031 15.394531 15.042969 14.875 14.800781 14.273438 15 13.875 15.480469 13.472656 15.960938 13.433594 16.640625 13.753906 17.121094L14.355469 18.121094C16.554688 21.761719 16.59375 21.761719 16.792969 21.921875 16.992188 22.082031 17.273438 22.160156 17.511719 22.160156 17.671875 22.160156 17.832031 22.121094 18.035156 22.121094 19.03125 21.71875 21.03125 19.160156 21.191406 18.082031 21.273438 17.601562 21.113281 17.199219 20.753906 16.921875zM17.753906 21.320312C17.554688 21.359375 17.433594 21.359375 17.3125 21.28125 17.195312 21.199219 16.714844 20.441406 15.035156 17.679688L14.433594 16.679688C14.3125 16.480469 14.3125 16.203125 14.515625 15.960938 14.632812 15.800781 14.792969 15.722656 14.953125 15.722656 14.992188 15.722656 15.035156 15.722656 15.152344 15.761719 15.273438 15.800781 15.554688 15.921875 16.714844 16.28125 19.632812 17.242188 20.234375 17.441406 20.3125 17.519531 20.433594 17.601562 20.433594 17.800781 20.433594 17.921875 20.3125 18.722656 18.472656 21.039062 17.753906 21.320312zM14.832031 13.800781C14.875 13.800781 14.875 13.800781 14.914062 13.800781 14.953125 13.800781 14.992188 13.800781 15.074219 13.761719 15.234375 13.722656 15.632812 13.601562 16.195312 13.480469 20.3125 12.480469 20.3125 12.480469 20.554688 12.320312 20.914062 12.082031 21.113281 11.683594 21.074219 11.242188 21.074219 11.242188 21.074219 11.203125 21.074219 11.160156 20.953125 10.042969 19.191406 7.441406 18.234375 6.960938 17.792969 6.761719 17.351562 6.761719 16.992188 7.003906 16.753906 7.164062 16.753906 7.164062 14.515625 10.242188 14.515625 10.242188 13.59375 11.480469 13.554688 11.523438 13.195312 11.960938 13.152344 12.601562 13.515625 13.121094 13.835938 13.601562 14.355469 13.839844 14.832031 13.800781zM14.152344 12.042969C14.195312 12.042969 14.195312 12.042969 15.152344 10.722656 16.832031 8.441406 17.351562 7.761719 17.433594 7.683594 17.472656 7.644531 17.554688 7.601562 17.632812 7.601562 17.714844 7.601562 17.792969 7.644531 17.875 7.683594 18.554688 8.042969 20.152344 10.363281 20.273438 11.242188L20.273438 11.28125C20.273438 11.480469 20.234375 11.601562 20.113281 11.683594 19.992188 11.761719 19.3125 11.921875 15.992188 12.722656 15.472656 12.84375 15.152344 12.921875 14.953125 13 14.914062 13 14.875 13 14.832031 13 14.59375 13.042969 14.355469 12.921875 14.195312 12.683594 14.035156 12.441406 14.035156 12.203125 14.152344 12.042969zM11.914062.921875C11.792969.484375 11.472656.164062 10.996094.0429688 9.875-.234375 5.875.882812 5.074219 1.722656 4.753906 2.042969 4.59375 2.484375 4.714844 2.882812 4.753906 2.921875 4.753906 2.921875 4.753906 2.964844 4.875 3.203125 8.515625 8.960938 9.632812 10.683594 10.113281 11.441406 10.59375 11.84375 11.15625 11.84375 11.273438 11.84375 11.433594 11.84375 11.554688 11.800781 12.234375 11.601562 12.554688 10.921875 12.515625 9.84375 12.472656 8.441406 11.996094 1.363281 11.914062.921875zM11.3125 11.003906C10.996094 11.121094 10.675781 10.882812 10.316406 10.28125 8.476562 7.402344 5.753906 3.125 5.476562 2.644531 5.476562 2.523438 5.515625 2.402344 5.636719 2.285156 6.234375 1.644531 9.914062.644531 10.792969.84375 10.996094.882812 11.113281.964844 11.15625 1.125 11.195312 1.644531 11.675781 8.242188 11.714844 9.84375 11.753906 10.523438 11.632812 10.921875 11.3125 11.003906zM11.3125 11.003906"/>
</svg>

<svg xmlns="http://www.w3.org/2000/svg" width="32" height="32" viewBox="0 0 24 24">
    <path d="M9.555 15.441c.558-.16.918-.64.96-1.28.04-.638-.28-1.2-.84-1.4l-1.081-.44c-3.918-1.637-3.918-1.637-4.2-1.637-.437 0-.84.199-1.078.597-.52.762-.601 2.84-.48 4 .078.52.16.88.281 1.121.238.399.598.68 1.04.68h.077c.243 0 .563-.121 3.801-1.16 1.121-.36 1.442-.442 1.52-.48zm-5.36.84c-.199 0-.32-.16-.36-.238-.038-.121-.16-.32-.198-.84-.121-1.242.078-3 .36-3.48.12-.16.237-.243.437-.243.12 0 .843.282 3.921 1.563l1.079.437c.242.122.359.36.359.641-.04.281-.16.48-.398.559-.079 0-1.56.48-1.56.48-2.92.961-3.519 1.121-3.64 1.121zm0 0M11.473 16.242c-.598-.242-1.239-.082-1.598.36 0 0-.68.8-.762.878-2.758 3.239-2.758 3.282-2.84 3.52-.078.16-.078.36-.078.52.04.242.16.48.32.68.641.76 3.32 1.8 4.56 1.8h.28c.48-.078.801-.36.957-.762.083-.238.083-.277.083-4.078v-1.598c0-.601-.32-1.082-.922-1.32zm.12 2.918c0 3.16 0 3.68-.038 3.8-.082.122-.2.2-.36.24-.8.12-3.558-.88-4.082-1.481-.078-.117-.117-.2-.117-.278 0-.039 0-.12.04-.16.038-.12.558-.761 2.679-3.281.16-.117.36-.398.8-.879.118-.16.4-.238.68-.121.278.082.399.281.399.48v1.68zm0 0M20.754 16.922c-.2-.16-.2-.16-3.84-1.36-.559-.199-1.441-.48-1.52-.519-.519-.242-1.12-.043-1.519.437-.402.48-.441 1.16-.121 1.641l.601 1c2.2 3.64 2.239 3.64 2.438 3.8.2.161.48.24.719.24.16 0 .32-.04.523-.04.996-.402 2.996-2.96 3.156-4.039.082-.48-.078-.883-.437-1.16zm-3 4.398c-.2.04-.32.04-.442-.039-.117-.082-.597-.84-2.277-3.601l-.601-1c-.121-.2-.121-.477.082-.72a.542.542 0 0 1 .437-.237c.04 0 .082 0 .2.039.12.039.402.16 1.562.52 2.918.96 3.52 1.16 3.598 1.238.12.082.12.28.12.402-.12.8-1.96 3.117-2.68 3.398zm0 0M14.832 13.8h.082c.04 0 .078 0 .16-.038.16-.04.559-.16 1.121-.282 4.117-1 4.117-1 4.36-1.16.36-.238.558-.636.52-1.078v-.082c-.122-1.117-1.884-3.719-2.84-4.2-.442-.198-.883-.198-1.243.044-.238.16-.238.16-2.476 3.238 0 0-.922 1.238-.961 1.281-.36.438-.403 1.079-.04 1.598.32.48.84.719 1.317.68zm-.68-1.757c.043 0 .043 0 1-1.32 1.68-2.282 2.2-2.961 2.282-3.04a.311.311 0 0 1 .199-.081c.082 0 .16.043.242.082.68.359 2.277 2.68 2.398 3.558v.04c0 .198-.039.32-.16.402-.12.078-.8.238-4.12 1.039-.52.12-.84.199-1.04.277h-.121c-.238.043-.477-.078-.637-.316-.16-.243-.16-.48-.043-.641zm0 0M11.914.922c-.121-.438-.441-.758-.918-.879-1.121-.277-5.121.84-5.922 1.68-.32.32-.48.761-.36 1.16.04.039.04.039.04.082.121.238 3.762 5.996 4.879 7.719.48.757.96 1.16 1.523 1.16.117 0 .278 0 .399-.043.68-.2 1-.88.96-1.957-.042-1.403-.519-8.48-.6-8.922zm-.601 10.082c-.317.117-.637-.121-.997-.723-1.84-2.879-4.562-7.156-4.84-7.636 0-.122.04-.243.16-.36.598-.64 4.278-1.64 5.157-1.441.203.039.32.12.363.281.04.52.52 7.117.559 8.719.039.68-.082 1.078-.402 1.16zm0 0"/>
</svg>
